X:62
M:C
L:1/8
Q:1/4=100
K:G
de/f/ g>ag>f ef/g/|dBAG E2 zE/4D/4E/4F/4|G>D EG e2 g2|dB A2 G2:|
a/4|
b>ag>f g>f ef/g/|dBAG E2 zD/4E/4F/|G>DEG e2 g2|dB A2 G2||

